X: 1
T: Nottingham Cottage
C: John Barnes 2018
N: Written for the dance "When Harry Wed Meghan" in 2018
N: "The cottage is their starter home in the grounds of Kensington Palace."
R: jig
Z: 2018 John Chambers <jc:trillian.mit.edu>
M: 6/8
L: 1/8
K: A
E |\
"A"edc cBA | "Bm"BAF "E"E2E | "D"F2A "E7"GBG | "A"A3 A2E |\
"A"edc cBA | "Bm"fdc B2A | "B"F2A B^df | "E7"e3 e2 ||
E |\
"A"edc cBA | "E7"Bcd "A"c2B | "A7"A2c ef=g | "D"f3 "Bm"f2A |\
"E7"GAB EFG | "A"A2c ece | "Bm"faf "E7"cdB | "A"A3 "A7"A2 |]
e |\
"D"f2a def | "Bm"B2d "E"GAB | "E7"EFG "F#m"A2B | "Bm"cec "E"B2e |\
"D"f2a def | "Bm"B2d "E"GAB | "E7"EFG "F#m"Ace | "E7"fbg "A7"a2 ||
e |\
"D"f2d "Bm"agf | "C#m"e2c gfe | "Bm"d2B "E7"fed | "A"cec "E"B2e |\
"D"f2d "Bm"baf | "C#m"e2c "F#m"fec | "Bm"BAF "E7"cdB | "A"A3 A2 |]
